X: 409
P: Longways for as many as will
M: 6/8
L: 1/8
K: D
V: 1
|: e |\
f>ed d2e | f/e/f/g/a TB2A | B/A/B/c/d AFB | ADD D2 :|
V: 2 clef=bass middle=d
z |\
d3 g3 | f3 d3 | g3 d'3 | g3 z2z |\
d3 g3 | f3 d3 | g3 d'2g | a3 d2 :|
|: z |\
d'3 d3 | d'3 d3 | g3 d'3 | g3 a3 |\
d'3 d3 | d'3 d3 | g3 f2g | a3 d2 :|

